X:1
T:Faith (Tuckerman), CM
T:Faith (Tuckerman), CM
T:Samuel Parkman Tuckerman, 1848
T:Public Domain Courtesy of the Cyber Hymnal™
C:Samuel Parkman Tuckerman, 1848
Z:Public Domain
Z:Courtesy of the Cyber Hymnal™
%%score ( 1 2 ) ( 3 4 )
L:1/8
Q:1/4=125
M:2/2
K:E
V:1 treble 
V:2 treble 
V:3 bass 
V:4 bass 
V:1
 [EG]4 | [EG]2 [EG]2 [CF]2 E2 | [DA]4 [EG]4 | [Ec]8 | [EB]4 [EB]2 [EG]2 | [DF]4 [Ec]4 | %6
 [DB]4 [EG]4 | [FB]2 [FA]2 [EG]2 [DF]2 | E4 (c2 B2) | [FA]8 | [EG]4 [EB]2 [FA]2 | [EG]4 [DF]4 | %12
 E4 |] %13
V:2
 x4 | x6 E2 | x8 | x8 | x8 | x8 | x8 | x8 | E4 E4 | x8 | x8 | x8 | E4 |] %13
V:3
 [E,B,]4 | [E,B,]2 [E,B,]2 A,2 [G,B,]2 | [F,A,]4 [E,B,]4 | A,8 | [G,B,]4 [G,B,]2 [E,B,]2 | %5
 [F,B,]4 [F,^A,]4 | [B,,B,]4 [E,B,]4 | [D,B,]2 [D,B,]2 [E,B,]2 [B,,A,]2 | [C,G,]4 A,2 [G,B,]2 | %9
 [F,C]8 | [C,C]4 [G,,B,]2 [A,,C]2 | [B,,B,]4 (B,2 A,2) | [E,G,]4 |] %13
V:4
 x4 | x4 A,2 x2 | x8 | A,8 | x8 | x8 | x8 | x8 | x4 A,2 x2 | x8 | x8 | x4 B,,4 | x4 |] %13

